**kern	**kern
*part1	*part1
*staff2	*staff1
*I"Piano	*
*clefF4	*clefG2
*k[f#]	*k[f#]
=1	=1
2.GGG 2.GG	8r
*	*^
.	(8a	[8B [8d
!	!LO:TX:b:i:t=dim.	!
.	4g	2B] 2d]
.	4f#)	.
*	*v	*v
=	=
2.GGG 2.GG	8r
*	*^
.	(8fn	[8G [8c
.	4e	2G] 2c]
.	4e-X)	.
*	*v	*v
*	*clefF4
=	=
2.GGG 2.GG	4r
*	*^
.	(4d	2E-X 2F#X 2A
.	4c)	.
*	*v	*v
=	=
2.GGG 2.GG	4r
*	*^
.	(4B	2C 2E-X 2F#
.	4A)	.
*	*v	*v
=	=
2.GGG 2.GG	4r
.	2D 2G 2B 2d
=	=
2.GGG 2.GG	4r
.	2D 2G 2B 2d
=	=
4GGG 4GG	4r
*	*clefG2
2D; 2G 2B 2d	2g; 2b 2dd 2gg
==	==
*-	*-
!!!system-decoration: {(s1,s2)}
